crypto/ray.svg

<svg fill="none" height="32" viewBox="0 0 32 32" width="32" xmlns="http://www.w3.org/2000/svg" xmlns:xlink="http://www.w3.org/1999/xlink"><linearGradient id="a"><stop offset="0" stop-color="#c200fb"/><stop offset=".48966" stop-color="#3772ff"/><stop offset=".48976" stop-color="#3773fe"/><stop offset="1" stop-color="#5ac4be"/></linearGradient><linearGradient id="b" gradientUnits="userSpaceOnUse" x1="28.1828" x2="3.79649" xlink:href="#a" y1="11.1281" y2="20.8801"/><linearGradient id="c" gradientUnits="userSpaceOnUse" x1="276.12" x2="32.1678" xlink:href="#a" y1="290.331" y2="210.294"/><linearGradient id="d" gradientUnits="userSpaceOnUse" x1="124.723" x2="41.7948" xlink:href="#a" y1="73.9047" y2="35.4726"/><linearGradient id="e" gradientUnits="userSpaceOnUse" x1="90.6131" x2="30.5507" xlink:href="#a" y1="75.8188" y2="55.0158"/><path d="m16 32c8.8366 0 16-7.1634 16-16 0-8.83656-7.1634-16-16-16-8.83656 0-16 7.16344-16 16 0 8.8366 7.16344 16 16 16z" fill="#141b35"/><path d="m26.2994 12.6884v9.2598l-10.2994 5.9453-10.30519-5.9453v-11.8964l10.30519-5.95102 7.9156 4.57244 1.1948-.68932-9.1104-5.26173-11.5 6.64035v13.27498l11.5 6.6403 11.5-6.6403v-10.6384z" fill="url(#b)"/><path d="m13.1164 21.954h-1.7233v-5.7788h5.7443c.5434-.006 1.0626-.2258 1.4453-.6117s.5981-.907.5996-1.4505c.0031-.2687-.0488-.5353-.1525-.7832-.1037-.248-.2571-.4721-.4507-.6585-.1873-.1925-.4115-.3452-.6593-.4488-.2478-.1037-.5139-.1562-.7825-.1544h-5.7442v-1.7578h5.75c1.0066.006 1.9704.4086 2.6822 1.1204.7119.7119 1.1144 1.6756 1.1204 2.6823.0062.7706-.2287 1.5238-.672 2.1541-.4079.6031-.9828 1.0742-1.6543 1.3557-.6649.2109-1.359.3156-2.0565.3102h-3.4465z" fill="url(#c)"/><path d="m20.9057 21.8103h-2.0106l-1.5509-2.7055c.6136-.0376 1.2189-.1613 1.798-.3676z" fill="url(#d)"/><path d="m25.0989 10.7641 1.189.6606 1.1891-.6606v-1.39584l-1.1891-.68927-1.189.68932z" fill="url(#e)"/></svg>

<svg width="32" height="32" fill="none" xmlns="http://www.w3.org/2000/svg"><path d="M16 32c8.837 0 16-7.163 16-16S24.837 0 16 0 0 7.163 0 16s7.163 16 16 16Z" fill="#141B35"/><path d="M26.3 12.688v9.26L16 27.893 5.695 21.948V10.052L16 4.1l7.916 4.572 1.194-.69L16 2.724 4.5 9.362v13.274l11.5 6.64 11.5-6.64V12l-1.2.69Z" fill="url(#a)"/><path d="M13.116 21.954h-1.723v-5.779h5.744a2.068 2.068 0 0 0 1.893-2.845 1.968 1.968 0 0 0-.45-.659 1.992 1.992 0 0 0-1.443-.603h-5.744V10.31h5.75a3.826 3.826 0 0 1 3.803 3.803 3.693 3.693 0 0 1-.672 2.154 3.745 3.745 0 0 1-1.655 1.356 6.632 6.632 0 0 1-2.056.31h-3.447v4.021Z" fill="url(#b)"/><path d="M20.906 21.81h-2.01l-1.552-2.705a6.552 6.552 0 0 0 1.798-.368l1.764 3.073Z" fill="url(#c)"/><path d="m25.099 10.764 1.189.66 1.189-.66V9.368l-1.19-.689-1.188.69v1.395Z" fill="url(#d)"/><defs><linearGradient id="a" x1="28.183" y1="11.128" x2="3.796" y2="20.88" gradientUnits="userSpaceOnUse"><stop stop-color="#C200FB"/><stop offset=".49" stop-color="#3772FF"/><stop offset=".49" stop-color="#3773FE"/><stop offset="1" stop-color="#5AC4BE"/></linearGradient><linearGradient id="b" x1="276.12" y1="290.331" x2="32.168" y2="210.294" gradientUnits="userSpaceOnUse"><stop stop-color="#C200FB"/><stop offset=".49" stop-color="#3772FF"/><stop offset=".49" stop-color="#3773FE"/><stop offset="1" stop-color="#5AC4BE"/></linearGradient><linearGradient id="c" x1="124.723" y1="73.905" x2="41.795" y2="35.473" gradientUnits="userSpaceOnUse"><stop stop-color="#C200FB"/><stop offset=".49" stop-color="#3772FF"/><stop offset=".49" stop-color="#3773FE"/><stop offset="1" stop-color="#5AC4BE"/></linearGradient><linearGradient id="d" x1="90.613" y1="75.819" x2="30.551" y2="55.016" gradientUnits="userSpaceOnUse"><stop stop-color="#C200FB"/><stop offset=".49" stop-color="#3772FF"/><stop offset=".49" stop-color="#3773FE"/><stop offset="1" stop-color="#5AC4BE"/></linearGradient></defs></svg>
